X:99
T: REIHE REIHE ROSE
N: K2082
O: Europa, Mitteleuropa, Deutschland; Frankreich, Unter - Elsass
R: Kinder - Lied, Reigen, Tanz - Spiel
M: 2/4
L: 1/16
K: F
 | c2d2c2d2 | c4A2z2
c2d2c2d2 | c4A2
A2 | c2c2AAA2 | c2c2A2
A2 | cccAA2A2 | c2ccA4
FFF2FFF2 | c2c2A4

